icons/spam-3-line.svg

<svg width="24" height="24" fill="none" xmlns="http://www.w3.org/2000/svg"><g clip-path="url(#a)"><path d="M15.936 2.5 21.5 8.067v7.87L15.936 21.5h-7.87L2.5 15.936v-7.87L8.066 2.5h7.87Zm-.829 2H8.894L4.501 8.895v6.213l4.393 4.394h6.213l4.394-4.394V8.894l-4.394-4.393V4.5ZM8 11h8v2H8v-2Z" /></g><defs><clipPath id="a"><path fill="#fff" d="M0 0h24v24H0z"/></clipPath></defs></svg>

<svg xmlns="http://www.w3.org/2000/svg" width="24" height="24" fill="none"><g clip-path="url(#a)"><g><path fill="#121212" d="M15.936 2.5L21.5 8.067V15.937L15.936 21.5H8.066L2.5 15.936V8.066L8.066 2.5H15.936ZM15.107 4.5H8.894L4.501 8.895V15.108L8.894 19.502H15.107L19.501 15.108V8.894L15.107 4.501V4.5ZM8 11H16V13H8V11Z"/></g></g><defs><clipPath id="a"><rect width="24" height="24" fill="white"/></clipPath></defs></svg>
